X: 21091
T: SWEET LITTLE BARBARA
O: From the Iron Chest.
%R: waltz
B: "Edinburgh Repository of Music" v.2 p.109 #1
F: http://digital.nls.uk/special-collections-of-printed-music/pageturner.cfm?id=87776133
Z: 2015 John Chambers <jc:trillian.mit.edu>
M: 3/4
L: 1/8
K: G
|:\
G2 G2 G2 | G3 ABc | d2 B2 e2 | d2 B2 zg |\
G2 G2 G2 | G3 ABc | (d>g) f2 e2 | d4 z2 :|
|:\
(d2 B2) e2 | (c2 A2) d2 | (B2 G2) d2 | B2 A2 z2 |\
(dc)Bded | (cB)Acdc | BAGAB^c | d^ced=cA |
G2 G2 G2 | G3 ABc | d2 B2 e2 | d2 B2 zg |\
G2 G2 G2 | G3 ABc | d>e B2 A2 | G4 z2 :|

%%sep 2 1 500
%%sep 1 1 500

